X:1
T:Title
%%score { ( 1 2 ) | ( 3 4 ) }
L:1/8
Q:1/4=94
M:4/4
K:G
V:1 treble nm="Grand Piano"
V:2 treble 
V:3 treble 
V:4 treble 
V:1
 B2 B2 [Bd]>B F->[FB] | z4 G2 z2 | .[CEA]2 .[CEc]2 [B,DG]2 [DB]>A | [B,DG]4 [A,DF]4 | %4
w: R.~T.~Wiley * * * * *||||
 [DGB]2 [DGB]2 [Bd]>B F->[FB] | [B,G]2 [EGA]2 [^DFB]4 | .[EGA]2 [EGc][EA] [B,DG]2 F->[FB] | %7
w: |||
 [CFA]4 [B,DG]4 |] %8
w: |
V:2
 z4 z2 [CA]2 | [B,G]2 [DFA]2 [DB]4 | x8 | x8 | z4 z2 [CA]2 | x8 | z4 z2 [CA]2 | x8 |] %8
V:3
 [G,DG]2 [G,DG]2 z z/ G/[K:bass] z z/ D/ | E,2 D,2 z2 =F2 | z[K:treble] e[K:bass] z A D,2 z z/ C/ | %3
 D,4 D,4 | G,,2 G,2 z z/ G/ z z/ B,/ | E,2 C,2 B,,4 | z[K:treble] e[K:bass] z C D,2 z z/ D/ | %7
 D,4 G,,4 |] %8
V:4
 z4 [D,D]2[K:bass] D,2 | z4 G,4 | C,2[K:treble][K:bass] C,2 z2 D,2 | x8 | z4 [D,D]2 ^D,2 | x8 | %6
 C,2[K:treble][K:bass] C,2 z2 D,2 | x8 |] %8

